X:1042
T:Bal gavotte
C:trad
A:Bretagne
O:France
M:6/8
L:1/8
Q:1/4=80
K:C
ABc e3|dcB A3|efe d2 e|d2cB3:|
|A2 ce2 d|c2BA3|A2Bc2e|e2 d/3c/2 B3|
ABc e2 d|c2BA3|e2ed2c|BcB A3||


